X: 3445
T: POST HORN GALOP
%R: galop, polka, reel
B: James Kerr "Merry Melodies" v.3 p.51 #445
Z: 2016 John Chambers <jc:trillian.mit.edu>
M: 2/4
L: 1/8
K: G
|:\
GGGG | GGGG | (Gd)(Gd) | (Gd)(Gd) |\
DDDD | DDDD | (DA)(DA) | (DA)(DA) |\
GGGG | GGGG | (Gd)(Gd) |
(Gd)(Gd) |\
DDDD | DDDD | (DA)(DA) | Gz Gz ::\
[K:D]\
f>ed>B | A>FA>B | A>EA>B | A>FA>d |\
f>ed>B |
A>FA>B | A>df>d | ez az |\
f>ed>B | A>FA>B | A>EA>B | A>FA>d |\
f>ed>B | A>FA>B | A>df>e | dz dz :|

%%sep 1 1 500
%%sep 1 1 500

